web/ui/src/components/theme/workflow/svgs/retry.svg

<svg height="24" viewBox="0 0 24 24" width="24" xmlns="http://www.w3.org/2000/svg"><g fill="none" fill-rule="evenodd"><path d="m0 0h24v24h-24z" fill="#000" fill-rule="nonzero" opacity="0"/><path d="m17.6805469 1.52367187c.1492969-.06375.3220312.005625.3860156.15492188l1.5400781 3.605625c.0110157.02554688.0182813.05273437.0215625.08039062.0194532.16125001-.095625.30773438-.256875.32718751l-3.8927344.46898437c-.0632812.0075-.1270312-.00539063-.1821093-.03726562-.140625-.08109375-.1889063-.26109375-.1075782-.40171875l.8008594-1.38960938c-4.1489062-2.10117188-9.2650781-.61359375-11.61867185 3.46289062-2.43609375 4.21945318-.99046875 9.61499998 3.22898437 12.05109378 4.21945308 2.4360937 9.61476558.9904687 12.05085938-3.2289844.6813281-1.1800781 1.0725-2.4752344 1.1632031-3.8039062.0276563-.405.3782813-.7110938.7835156-.6834375.4050001.0276562.7110938.3782812.6834376.7835156-.1057032 1.5510937-.5627344 3.0635156-1.3567969 4.4390625-2.8420313 4.9225781-9.1366407 6.609375-14.05945315 3.7671094-4.9228125-2.8422657-6.609375-9.1366407-3.76710938-14.05945317 2.76-4.78031251 8.77523433-6.5090625 13.62867193-4.00265626l.8149218-1.41023437c.031875-.05507813.080625-.0984375.1392188-.12351563z" fill="#526579" stroke="#526579" stroke-width=".514286"/></g></svg>

<?xml version="1.0" encoding="UTF-8"?>
<svg width="24px" height="24px" viewBox="0 0 24 24" version="1.1" xmlns="http://www.w3.org/2000/svg" xmlns:xlink="http://www.w3.org/1999/xlink">
    <title>重试</title>
    <g id="页面-1" stroke="none" stroke-width="1" fill="none" fill-rule="evenodd">
        <g id="建木自动化-详情4备份-2" transform="translate(-829.000000, -600.000000)">
            <g id="编组-13" transform="translate(811.000000, 585.000000)">
                <g id="重试" transform="translate(18.000000, 15.000000)">
                    <rect id="矩形" fill="#000000" fill-rule="nonzero" opacity="0" x="0" y="0" width="24" height="24"></rect>
                    <path d="M17.6805469,1.52367187 C17.8298438,1.45992187 18.0025781,1.52929687 18.0665625,1.67859375 L19.6066406,5.28421875 C19.6176563,5.30976563 19.6249219,5.33695312 19.6282031,5.36460937 C19.6476563,5.52585938 19.5325781,5.67234375 19.3713281,5.69179688 L15.4785937,6.16078125 C15.4153125,6.16828125 15.3515625,6.15539062 15.2964844,6.12351563 C15.1558594,6.04242188 15.1075781,5.86242188 15.1889062,5.72179688 L15.9897656,4.3321875 C11.8408594,2.23101562 6.7246875,3.71859375 4.37109375,7.79507812 C1.935,12.0145313 3.380625,17.4100781 7.60007812,19.8461719 C11.8195312,22.2822656 17.2148437,20.8366406 19.6509375,16.6171875 C20.3322656,15.4371094 20.7234375,14.1419531 20.8141406,12.8132813 C20.8417969,12.4082813 21.1924219,12.1021875 21.5976562,12.1298438 C22.0026563,12.1575 22.30875,12.508125 22.2810938,12.9133594 C22.1753906,14.4644531 21.7183594,15.976875 20.9242969,17.3524219 C18.0822656,22.275 11.7876562,23.9617969 6.86484375,21.1195313 C1.94203125,18.2772656 0.25546875,11.9828906 3.09773437,7.06007813 C5.85773437,2.27976562 11.8729687,0.551015625 16.7264063,3.05742187 L17.5413281,1.6471875 C17.5732031,1.59210937 17.6219531,1.54875 17.6805469,1.52367187 Z" id="路径" stroke="#526579" stroke-width="0.514285714" fill="#526579"></path>
                </g>
            </g>
        </g>
    </g>
</svg>
